static/img/pages/index/integrations/kafka.svg

<svg width="56" height="91" viewBox="0 0 56 91" fill="none" xmlns="http://www.w3.org/2000/svg">
<path d="M44.1472 50.4026C40.6066 50.4026 37.4323 51.9726 35.2586 54.4444L29.6885 50.4979C30.2798 48.8686 30.6193 47.119 30.6193 45.2879C30.6193 43.4884 30.2916 41.7682 29.7198 40.163L35.2774 36.2583C37.4509 38.7176 40.6168 40.279 44.1472 40.279C50.6824 40.279 56 34.9578 56 28.4162C56 21.8746 50.6824 16.5533 44.1472 16.5533C37.6121 16.5533 32.2945 21.8746 32.2945 28.4162C32.2945 29.5871 32.4712 30.7161 32.7884 31.7854L27.2272 35.6921C24.904 32.8076 21.5591 30.7936 17.7481 30.1788V23.4706C23.1171 22.342 27.1624 17.5677 27.1624 11.8628C27.1624 5.32125 21.8448 0 15.3097 0C8.7745 0 3.45691 5.32125 3.45691 11.8628C3.45691 17.4913 7.39747 22.2067 12.6591 23.4159V30.2112C5.47837 31.4728 0 37.7448 0 45.2879C0 52.8676 5.53263 59.1627 12.7652 60.3813V67.5567C7.44975 68.7261 3.45691 73.4704 3.45691 79.1372C3.45691 85.6788 8.7745 91 15.3097 91C21.8448 91 27.1624 85.6788 27.1624 79.1372C27.1624 73.4704 23.1696 68.7261 17.8542 67.5567V60.3811C21.5149 59.764 24.8268 57.8362 27.1729 54.9567L32.7801 58.9289C32.4688 59.9885 32.2945 61.1064 32.2945 62.2655C32.2945 68.8071 37.6121 74.1283 44.1472 74.1283C50.6824 74.1283 56 68.8071 56 62.2655C56 55.7239 50.6824 50.4026 44.1472 50.4026ZM44.1472 22.6645C47.3163 22.6645 49.8938 25.2453 49.8938 28.4162C49.8938 31.587 47.3163 34.1676 44.1472 34.1676C40.9782 34.1676 38.4007 31.587 38.4007 28.4162C38.4007 25.2453 40.9782 22.6645 44.1472 22.6645ZM9.56287 11.8628C9.56287 8.69199 12.1406 6.11139 15.3097 6.11139C18.4787 6.11139 21.0562 8.69199 21.0562 11.8628C21.0562 15.0337 18.4787 17.6143 15.3097 17.6143C12.1406 17.6143 9.56287 15.0337 9.56287 11.8628ZM21.0562 79.1372C21.0562 82.308 18.4787 84.8886 15.3097 84.8886C12.1406 84.8886 9.56287 82.308 9.56287 79.1372C9.56287 75.9663 12.1406 73.3857 15.3097 73.3857C18.4787 73.3857 21.0562 75.9663 21.0562 79.1372ZM15.3092 53.3092C10.8894 53.3092 7.29378 49.7112 7.29378 45.2879C7.29378 40.8642 10.8894 37.2656 15.3092 37.2656C19.7288 37.2656 23.3244 40.8642 23.3244 45.2879C23.3244 49.7112 19.7288 53.3092 15.3092 53.3092ZM44.1472 68.0172C40.9782 68.0172 38.4007 65.4363 38.4007 62.2655C38.4007 59.0946 40.9782 56.514 44.1472 56.514C47.3163 56.514 49.8938 59.0946 49.8938 62.2655C49.8938 65.4363 47.3163 68.0172 44.1472 68.0172Z" fill="white"/>
</svg>

<svg width="56" height="91" fill="none" xmlns="http://www.w3.org/2000/svg"><path d="M44.147 50.403c-3.54 0-6.715 1.57-8.888 4.041l-5.57-3.946c.59-1.63.93-3.379.93-5.21 0-1.8-.327-3.52-.9-5.125l5.558-3.905c2.174 2.46 5.34 4.021 8.87 4.021C50.682 40.279 56 34.958 56 28.416c0-6.541-5.318-11.863-11.853-11.863s-11.852 5.322-11.852 11.863c0 1.171.176 2.3.493 3.37l-5.56 3.906a15.298 15.298 0 00-9.48-5.513V23.47c5.37-1.129 9.414-5.903 9.414-11.608C27.162 5.32 21.845 0 15.31 0 8.774 0 3.457 5.321 3.457 11.863c0 5.628 3.94 10.344 9.202 11.553v6.795C5.48 31.473 0 37.745 0 45.288c0 7.58 5.533 13.875 12.765 15.093v7.176c-5.315 1.17-9.308 5.913-9.308 11.58C3.457 85.68 8.774 91 15.31 91c6.535 0 11.852-5.321 11.852-11.863 0-5.667-3.992-10.41-9.308-11.58V60.38a15.301 15.301 0 009.319-5.424l5.607 3.972a11.814 11.814 0 00-.486 3.337c0 6.541 5.318 11.862 11.853 11.862S56 68.808 56 62.266s-5.318-11.863-11.853-11.863zm0-27.738c3.17 0 5.747 2.58 5.747 5.751a5.756 5.756 0 01-5.747 5.752 5.756 5.756 0 01-5.746-5.752 5.756 5.756 0 015.746-5.752zM9.563 11.863A5.756 5.756 0 0115.31 6.11a5.756 5.756 0 015.746 5.752 5.756 5.756 0 01-5.746 5.751 5.756 5.756 0 01-5.747-5.751zm11.493 67.274a5.756 5.756 0 01-5.746 5.752 5.756 5.756 0 01-5.747-5.752 5.756 5.756 0 015.747-5.751 5.756 5.756 0 015.746 5.751zM15.31 53.31c-4.42 0-8.015-3.598-8.015-8.021 0-4.424 3.595-8.022 8.015-8.022s8.015 3.598 8.015 8.022c0 4.423-3.595 8.021-8.015 8.021zm28.838 14.708a5.756 5.756 0 01-5.746-5.751 5.756 5.756 0 015.746-5.752c3.17 0 5.747 2.58 5.747 5.752a5.756 5.756 0 01-5.747 5.751z" fill="#fff"/></svg>
